X: 1
M: 3/4
L: 1/4
%%score {RH | LH}
V: RH clef=treble
V: LH clef=bass
K: C
V: LH
%%pos ornament below
%
[V: RH] z3              | !3!E/E/ E !1!C | !1!C/!3!E/ !5!G G | !4!F/!3!E/ !2!D2 |
[V: LH] !2!C/C/ C !5!G, | z3             | z3                | z3               |
%
[V: RH] !2!D/!3!E/ !4!F F | !3!E/!2!D/ !3!E !1!C | !1!C/!3!E/ !2!D z | z3                |]
[V: LH] z3                | z3                   | z2 !5!G,          | !3!B,/!1!D/ !2!C2 |]
